Flat-Remix-Blue/mimetypes/scalable/application-text-template.svg

<svg xmlns="http://www.w3.org/2000/svg" xmlns:xlink="http://www.w3.org/1999/xlink" width="36pt" height="36pt" version="1.1" viewBox="0 0 36 36"> <defs> <clipPath id="clip1"> <path d="M 20 2 L 31 2 L 31 13 L 20 13 Z M 20 2"/> </clipPath> <clipPath id="clip2"> <path d="M 20.730469 2.472656 L 30.546875 12.285156 L 22.242188 12.285156 C 21.507812 12.285156 20.730469 11.507812 20.730469 10.777344 Z M 20.730469 2.472656"/> </clipPath> <image id="image6" width="36" height="36" xlink:href="data:image/png;base64,iVBORw0KGgoAAAANSUhEUgAAACQAAAAkCAYAAADhAJiYAAAABmJLR0QA/wD/AP+gvaeTAAAAj0lEQVRYhe3T2wqDMBCE4b/x0AaK7/+sWmMvOhJvSoikQmE+WEQNy7BJwP5M94OeQXWqd+tAARiAEej1LdU06MtLqnTAHXgAK7ABr8P/7epAgc90ogIl1aoqhmq9ZfuEop6DQnIIV2zQ0k09IzABT70vwEye0lehtKDSvj2JPK2RfPNaHxEzMzMzMzOzi70Boe8Tg87M2S4AAAAASUVORK5CYII="/> </defs> <g> <path style="fill:rgb(90.196%,90.196%,90.196%)" d="M 7.347656 3.152344 C 7.25 3.152344 7.15625 3.167969 7.066406 3.191406 C 6.609375 3.40625 6.261719 3.882812 6.261719 4.382812 L 6.261719 31.773438 C 6.261719 32.109375 6.453125 32.457031 6.730469 32.707031 C 6.941406 32.839844 7.179688 32.925781 7.414062 32.925781 L 22.050781 32.925781 L 22.050781 31.621094 L 19.261719 31.621094 L 19.261719 29.011719 L 22.050781 29.011719 L 22.050781 26.402344 L 19.261719 26.402344 L 19.261719 23.792969 L 22.050781 23.792969 L 22.050781 21.183594 L 19.261719 21.183594 L 19.261719 18.574219 L 22.050781 18.574219 L 22.050781 15.964844 L 19.261719 15.964844 L 19.261719 13.359375 L 22.050781 13.359375 L 22.050781 10.75 L 19.261719 10.75 L 19.261719 8.140625 L 22.050781 8.140625 L 22.050781 5.53125 L 19.261719 5.53125 L 19.261719 3.152344 Z M 22.050781 5.53125 L 23.425781 5.53125 L 22.050781 4.160156 Z M 22.050781 8.140625 L 22.050781 10.75 L 24.839844 10.75 L 24.839844 8.140625 Z M 24.839844 8.140625 L 26.035156 8.140625 L 24.839844 6.945312 Z M 22.050781 13.359375 L 22.050781 15.964844 L 24.839844 15.964844 L 24.839844 13.359375 Z M 24.839844 15.964844 L 24.839844 18.574219 L 27.625 18.574219 L 27.625 15.964844 Z M 24.839844 18.574219 L 22.050781 18.574219 L 22.050781 21.183594 L 24.839844 21.183594 Z M 22.050781 23.792969 L 22.050781 26.402344 L 24.839844 26.402344 L 24.839844 23.792969 Z M 24.839844 26.402344 L 24.839844 29.011719 L 27.625 29.011719 L 27.625 26.402344 Z M 24.839844 29.011719 L 22.050781 29.011719 L 22.050781 31.621094 L 24.839844 31.621094 Z M 24.839844 31.621094 L 24.839844 32.925781 L 27.625 32.925781 L 27.625 31.621094 Z M 27.625 10.75 L 27.625 13.359375 L 29.523438 13.359375 L 29.523438 11.628906 L 28.640625 10.75 Z M 27.625 21.183594 L 27.625 23.792969 L 29.523438 23.792969 L 29.523438 21.183594 Z M 27.625 21.183594"/> <g clip-path="url(#clip1)"> <g clip-path="url(#clip2)"> <use xlink:href="#image6"/> </g> </g> <path style="fill:rgb(100.000%,100.000%,100.000%)" d="M 22.050781 4.160156 L 22.050781 5.53125 L 23.425781 5.53125 Z M 22.050781 5.53125 L 21.042969 5.53125 L 21.042969 8.140625 L 22.050781 8.140625 Z M 22.050781 8.140625 L 22.050781 10.75 L 24.839844 10.75 L 24.839844 8.140625 Z M 24.839844 8.140625 L 26.035156 8.140625 L 24.839844 6.945312 Z M 22.050781 10.75 L 21.140625 10.75 C 21.304688 11.128906 21.664062 11.460938 22.050781 11.578125 Z M 27.625 10.75 L 27.625 11.628906 L 29.523438 11.628906 L 28.640625 10.75 Z M 27.625 10.75"/> <path style="fill:rgb(0%,0%,0%);fill-opacity:0.352941" d="M 11.480469 14.738281 L 11.480469 15.390625 L 19.261719 15.390625 L 19.261719 14.738281 Z M 22.050781 14.738281 L 22.050781 15.390625 L 24.519531 15.390625 L 24.519531 14.738281 Z M 11.480469 17.347656 L 11.480469 18 L 22.050781 18 L 22.050781 17.347656 Z M 11.480469 19.957031 L 11.480469 20.609375 L 19.261719 20.609375 L 19.261719 19.957031 Z M 22.050781 19.957031 L 22.050781 20.609375 L 24.519531 20.609375 L 24.519531 19.957031 Z M 11.480469 22.566406 L 11.480469 23.21875 L 22.050781 23.21875 L 22.050781 22.566406 Z M 11.480469 25.171875 L 11.480469 25.828125 L 19.183594 25.828125 L 19.183594 25.171875 Z M 11.480469 25.171875"/> </g> </svg>

<svg width="36pt" height="36pt" version="1.1" viewBox="0 0 36 36" xmlns="http://www.w3.org/2000/svg"><path d="m7.3477 3.1523c-0.097656 0-0.19141 0.015625-0.28125 0.039062-0.45703 0.21484-0.80469 0.69141-0.80469 1.1914v27.391c0 0.33594 0.19141 0.68359 0.46875 0.93359 0.21094 0.13281 0.44922 0.21875 0.68359 0.21875h14.637v-1.3047h-2.7891v-2.6094h2.7891v-2.6094h-2.7891v-2.6094h2.7891v-2.6094h-2.7891v-2.6094h2.7891v-2.6094h-2.7891v-2.6055h2.7891v-2.6094h-2.7891v-2.6094h2.7891v-2.6094h-2.7891v-2.3789zm14.703 4.9883v2.6094h2.7891v-2.6094zm0 5.2188v2.6055h2.7891v-2.6055zm2.7891 2.6055v2.6094h2.7852v-2.6094zm0 2.6094h-2.7891v2.6094h2.7891zm-2.7891 5.2188v2.6094h2.7891v-2.6094zm2.7891 2.6094v2.6094h2.7852v-2.6094zm0 2.6094h-2.7891v2.6094h2.7891zm0 2.6094v1.3047h2.7852v-1.3047z" fill="#e6e6e6"/><path d="m11.48 14.738v0.65234h7.7812v-0.65234zm10.57 0v0.65234h2.4688v-0.65234zm-10.57 2.6094v0.65234h10.57v-0.65234zm0 2.6094v0.65234h7.7812v-0.65234zm10.57 0v0.65234h2.4688v-0.65234zm-10.57 2.6094v0.65234h10.57v-0.65234zm0 2.6055v0.65625h7.7031v-0.65625z" fill-opacity=".35294"/></svg>
